X:1
T:The Rambling Pitchfork
M:6/8
K:D
|"D"F3 AFF|dFF AFD|"G"GFG ABc|"A"ded cBA|
"D"F2 F AFF|dFF AFD|"G"GFG BAG| "A"AFD "D"D3 :|
|: "D"d2 e fed|"A"ecA AFA|"D"dcd efg|"A"f/g/af gec|
"D"d2 e fed|"A"ecA AGF|"G"G3 BGB| "A"AFD"D" D3:|

